X:88
T: Graf und Nonne (Die Nonne)
N: Q0155Y
O: Mitteleuropa, Deutschland (BRD) , Nordrhein - Westfalen, Siegkreis,
N: Stark "zersungene" Fassung.
R: Ballade, Standesunterschied, vergebliche Werbung, Liebe, Klage
M: 6/8
L: 1/16
K: G
d2 | d3dd2d4d2 | B6B4
B2 | c3cc2c2d2e2 | d6z4
d2 | d2e2f2g2f2e2 | e3dcdB4
d2 | d2e2d2c2A2d2 | B6z4

